!!!!SEGMENT: pl-kozmzk--mzk-m-346--025_walczynski-franciszek--cantantibus-organis-andante-sostenuto.krn
!!!cenid: 18xx:2820
!!!COM: Walczyński, Franciszek
!!!COM-rismid: pe30021989
!!!CDT: ~1852-1937
!!!CNT: Polish
!!!OTL: Cantantibus organis – Andante sostenuto
!!!PDT: 1898
!!!AGN: Secular
!!!SMS-siglum: PL-KOZmzk
!!!SMS-shelfmark: mzk/m/346
!!!SMS-shelfwork: 025 G
!!!SMS-variant:
!!!SMS-altvar:
!!!NIFC-rismid: 1001109274
!!!URL-scan: https://repozytorium.nifc.pl/islandora/object/pl-kozmzk%3A7453/datastream/PDF/view
!!!ONB-nifc:
**kern	**kern	**dynam
*part1	*part1	*part1
*staff2	*staff1	*
*I"Organo	*I"Organo	*
*clefF4	*clefG2	*
*k[f#c#g#]	*k[f#c#g#]	*
*f#:	*f#:	*
*M3/4	*M3/4	*
=1	=1	=1
*^	*^	*
!	!	!LO:TX:a:B:t=Andante sostenuto.	!	!
2.r	(8FF#\L	2.rdd	2.rg	p
.	8EE#X\	.	.	.
.	8FF#\	.	.	.
.	8AA\	.	.	.
.	8C#\	.	.	.
.	8F#\J	.	.	.
=2	=2	=2	=2	=2
2.r	4A\	2.rdd	2.rg	.
.	4G#\	.	.	.
.	4F#\)	.	.	.
*v	*v	*	*	*
=3	=3	=3	=3
!	!	!	!LO:DY:a
!	!	!	!LO:HP:a
([2.c#\	[2.cc#/	(4e#X\ 4g#	f >
.	.	4f#\ 4a	.
.	.	4d#X\ 4f#	.
=4	=4	=4	=4
8c#\L]	4cc#/]	4e#X\) 4g#	]
8d#X\	.	.	.
8c#\	4r	4ryy	.
8G#\J	.	.	.
4c#\)	4r	4ryy	.
=5	=5	=5	=5
*^	*	*	*
!	!	!	!	!LO:DY:t=pf
2.r	(8C#\L	2.rdd	2.rg	fp
.	8BB#X\	.	.	.
.	8C#\	.	.	.
.	8E#X\	.	.	.
.	8G#\	.	.	.
.	8B\J	.	.	.
=6	=6	=6	=6	=6
2.r	4d\	2.rdd	2.rg	.
.	4c#\	.	.	.
.	4B\)	.	.	.
=7	=7	=7	=7	=7
(4c#/	(4A\	(4a/	(4e\	p
4d/	4D\	4b/	4f#\	.
4B/	4E\	4g#/	8e\L	.
.	.	.	8d\J	.
=8	=8	=8	=8	=8
!LO:SIC:v:n=2:s=4AA	!	!	!	!
8A/L	4BB\)	4a/)	4c#\)	.
8B/	.	.	.	.
8A/	4r	4rdd	4rc	.
8E/J	.	.	.	.
4A/)	4r	4rdd	4rc	.
=9	=9	=9	=9	=9
2.r	(8AA\L	2.rdd	2.rg	f
.	8GG#\	.	.	.
.	8AA\	.	.	.
.	8C#\	.	.	.
.	8E\	.	.	.
.	8A\J	.	.	.
=10	=10	=10	=10	=10
!!LO:LB:g=original
2.r	4c#\	2.rdd	2.rg	.
.	4B\	.	.	.
.	4A\)	.	.	.
=11	=11	=11	=11	=11
4e#X/	(4G#\	(4dd/	4b\	f
4f#/	4A\	4cc#/	4a\	.
8d/L	8B\L	8b/L	8g#\L	.
8d#X/J	8B#X\J	8a/J	8f#\J	.
=12	=12	=12	=12	=12
2.e#X/	2.c#;\)	8cc#/L	2.e#X;\ 2.g#	<
.	.	8dd#X/	.	.
.	.	8cc#/	.	.
.	.	8g#/J	.	[ >
.	.	4cc#;/)	.	]]
=13	=13	=13	=13	=13
8rd	8r	2.rdd	2.rg	.
8c#/	8C#\	.	.	.
4d^/	4D^\	.	.	.
4B^/	4BB^\	.	.	.
=14	=14	=14	=14	=14
8rd	8r	2.rdd	2.rg	.
8e#X/	8E#X\	.	.	.
4f#^/	4F#^\	.	.	.
4B#X^/	4BB#X^\	.	.	.
=15	=15	=15	=15	=15
!	!	!	!	!LO:DY:b=2
8r	(2.C#\	4r	4ryy	pp
(8c#/	.	.	.	.
4cn/	.	(4.a^/	4f#\	pp
4B/	.	.	4e#X\	.
.	.	8g#/	.	.
=16	=16	=16	=16	=16
2.A/)	8FF#\L	2.f#/)	2.f#\	.
.	8GG#\	.	.	.
.	8FF#\	.	.	.
.	8CC#\J	.	.	.
.	4FF#\)	.	.	.
=17	=17	=17	=17	=17
(4B/	[2.FF#\	[2.f#/	(4d\	.
4A/	.	.	4c#\	.
!LO:TX:i:b=2:t=rit.	!	!	!	!
4G#/	.	.	4B\	.
=18	=18	=18	=18	=18
!	!	!	!	!LO:HP:a
8F#/L	2.FF#;\]	2.f#;/]	2.A\) 2.c#	>
8G#/	.	.	.	.
8F#/	.	.	.	.
8C#/J	.	.	.	.
4F#;/)	.	.	.	]
*v	*v	*	*	*
*	*v	*v	*
==	==	==
*-	*-	*-
!!!system-decoration: {(s1,s2)}
!!!ENC: Kamil Watkowski
!!!END: 2021-08-09
